storage/app/icons/phosphoricons/regular/briefcase.svg

<svg xmlns="http://www.w3.org/2000/svg" fill="currentColor" viewBox="0 0 256 256"><path d="M216 56h-40v-8a24 24 0 0 0-24-24h-48a24 24 0 0 0-24 24v8H40a16 16 0 0 0-16 16v128a16 16 0 0 0 16 16h176a16 16 0 0 0 16-16V72a16 16 0 0 0-16-16M96 48a8 8 0 0 1 8-8h48a8 8 0 0 1 8 8v8H96Zm120 24v41.61A184 184 0 0 1 128 136a184.1 184.1 0 0 1-88-22.38V72Zm0 128H40v-68.36A200.2 200.2 0 0 0 128 152a200.25 200.25 0 0 0 88-20.37zm-112-88a8 8 0 0 1 8-8h32a8 8 0 0 1 0 16h-32a8 8 0 0 1-8-8"/></svg>

<svg xmlns="http://www.w3.org/2000/svg" viewBox="0 0 256 256" fill="currentColor"><path d="M216,56H176V48a24,24,0,0,0-24-24H104A24,24,0,0,0,80,48v8H40A16,16,0,0,0,24,72V200a16,16,0,0,0,16,16H216a16,16,0,0,0,16-16V72A16,16,0,0,0,216,56ZM96,48a8,8,0,0,1,8-8h48a8,8,0,0,1,8,8v8H96ZM216,72v41.61A184,184,0,0,1,128,136a184.07,184.07,0,0,1-88-22.38V72Zm0,128H40V131.64A200.19,200.19,0,0,0,128,152a200.25,200.25,0,0,0,88-20.37V200ZM104,112a8,8,0,0,1,8-8h32a8,8,0,0,1,0,16H112A8,8,0,0,1,104,112Z"/></svg>
